Newaita-dark/apps/256/dex.svg

<?xml version="1.0" encoding="UTF-8"?>
<svg xmlns="http://www.w3.org/2000/svg" xmlns:xlink="http://www.w3.org/1999/xlink" width="256pt" height="256pt" viewBox="0 0 256 256" version="1.1">
<defs>
<radialGradient id="radial0" gradientUnits="userSpaceOnUse" cx="450.908936" cy="189.579361" fx="450.908936" fy="189.579361" r="21.166656" gradientTransform="matrix(0.00000139336,-0.62506,-1.125108,-0.000000812309,356.185215,508.762635)">
<stop offset="0" style="stop-color:rgb(0%,0%,0%);stop-opacity:0.313725;"/>
<stop offset="0.222222" style="stop-color:rgb(0%,0%,0%);stop-opacity:0.27451;"/>
<stop offset="1" style="stop-color:rgb(0%,0%,0%);stop-opacity:0;"/>
</radialGradient>
<radialGradient id="radial1" gradientUnits="userSpaceOnUse" cx="450.908936" cy="189.579361" fx="450.908936" fy="189.579361" r="21.166656" gradientTransform="matrix(-0.00000139336,0.62506,1.125108,0.000000812309,-102.160949,-60.219856)">
<stop offset="0" style="stop-color:rgb(0%,0%,0%);stop-opacity:0.313725;"/>
<stop offset="0.222222" style="stop-color:rgb(0%,0%,0%);stop-opacity:0.27451;"/>
<stop offset="1" style="stop-color:rgb(0%,0%,0%);stop-opacity:0;"/>
</radialGradient>
<radialGradient id="radial2" gradientUnits="userSpaceOnUse" cx="450.908936" cy="189.579361" fx="450.908936" fy="189.579361" r="21.166656" gradientTransform="matrix(-0.00000139336,-0.62506,1.125108,-0.000000812309,-102.160949,508.762635)">
<stop offset="0" style="stop-color:rgb(0%,0%,0%);stop-opacity:0.313725;"/>
<stop offset="0.222222" style="stop-color:rgb(0%,0%,0%);stop-opacity:0.27451;"/>
<stop offset="1" style="stop-color:rgb(0%,0%,0%);stop-opacity:0;"/>
</radialGradient>
<radialGradient id="radial3" gradientUnits="userSpaceOnUse" cx="450.908936" cy="189.579361" fx="450.908936" fy="189.579361" r="21.166656" gradientTransform="matrix(0.00000139336,0.62506,-1.125108,0.000000812309,356.1852,-60.21986)">
<stop offset="0" style="stop-color:rgb(0%,0%,0%);stop-opacity:0.313725;"/>
<stop offset="0.222222" style="stop-color:rgb(0%,0%,0%);stop-opacity:0.27451;"/>
<stop offset="1" style="stop-color:rgb(0%,0%,0%);stop-opacity:0;"/>
</radialGradient>
<linearGradient id="linear0" gradientUnits="userSpaceOnUse" x1="255.323059" y1="233.5" x2="255.323044" y2="254.666656" gradientTransform="matrix(0.10688,0,0,0.500048,99.723089,107.510269)">
<stop offset="0" style="stop-color:rgb(0%,0%,0%);stop-opacity:0.27451;"/>
<stop offset="1" style="stop-color:rgb(0%,0%,0%);stop-opacity:0;"/>
</linearGradient>
<linearGradient id="linear1" gradientUnits="userSpaceOnUse" x1="254" y1="233.5" x2="254" y2="-168.666672" gradientTransform="matrix(0.500048,0,0,0.500048,-0.00000474597,107.510265)">
<stop offset="0" style="stop-color:rgb(24.705882%,31.764706%,70.980392%);stop-opacity:1;"/>
<stop offset="1" style="stop-color:rgb(8.235294%,39.607843%,75.294118%);stop-opacity:1;"/>
</linearGradient>
<linearGradient id="linear2" gradientUnits="userSpaceOnUse" x1="960" y1="1535.118164" x2="960" y2="175.118118" >
<stop offset="0" style="stop-color:rgb(81.960784%,91.372549%,99.215686%);stop-opacity:0;"/>
<stop offset="1" style="stop-color:rgb(100%,98.039216%,91.764706%);stop-opacity:0.784314;"/>
</linearGradient>
<linearGradient id="linear3" gradientUnits="userSpaceOnUse" x1="254" y1="101.208344" x2="254" y2="-68.125" gradientTransform="matrix(3.779528,0,0,3.779528,0,812.59845)">
<stop offset="0" style="stop-color:rgb(100%,65.490196%,14.901961%);stop-opacity:1;"/>
<stop offset="1" style="stop-color:rgb(100%,83.529412%,30.980392%);stop-opacity:1;"/>
</linearGradient>
</defs>
<g id="surface1">
<path style=" stroke:none;fill-rule:nonzero;fill:url(#radial0);" d="M 145.535156 224.269531 L 166.703125 224.269531 L 166.703125 213.6875 L 145.535156 213.6875 Z M 145.535156 224.269531 "/>
<path style=" stroke:none;fill-rule:nonzero;fill:url(#radial1);" d="M 108.488281 224.269531 L 87.320312 224.269531 L 87.320312 234.855469 L 108.488281 234.855469 Z M 108.488281 224.269531 "/>
<path style=" stroke:none;fill-rule:nonzero;fill:url(#radial2);" d="M 108.488281 224.269531 L 87.320312 224.269531 L 87.320312 213.6875 L 108.488281 213.6875 Z M 108.488281 224.269531 "/>
<path style=" stroke:none;fill-rule:nonzero;fill:url(#radial3);" d="M 145.535156 224.269531 L 166.703125 224.269531 L 166.703125 234.855469 L 145.535156 234.855469 Z M 145.535156 224.269531 "/>
<path style=" stroke:none;fill-rule:nonzero;fill:url(#linear0);" d="M 108.488281 221.625 L 145.535156 221.625 L 145.535156 234.855469 L 108.488281 234.855469 Z M 108.488281 221.625 "/>
<path style=" stroke:none;fill-rule:nonzero;fill:url(#linear1);" d="M 127.011719 23.167969 C 182.546875 23.167969 227.5625 68.1875 227.5625 123.71875 C 227.5625 179.253906 182.546875 224.269531 127.011719 224.269531 C 71.480469 224.269531 26.460938 179.253906 26.460938 123.71875 C 26.460938 68.1875 71.480469 23.167969 127.011719 23.167969 Z M 127.011719 23.167969 "/>
<path style="fill-rule:nonzero;fill:url(#linear2);stroke-width:75.590553;stroke-linecap:round;stroke-linejoin:round;stroke:rgb(100%,79.215688%,15.686275%);stroke-opacity:0.0901961;stroke-miterlimit:4;" d="M 1176.767607 206.230317 L 1017.511154 265.958868 L 678.360452 325.805518 C 672.130732 326.897934 668.705862 333.688624 671.540237 339.357375 L 708.505213 413.257802 L 597.108365 524.65465 L 442.280622 485.947714 C 438.826227 485.091497 435.16516 486.242962 432.832705 488.959238 L 312.814632 628.96556 C 310.423128 631.770411 309.862158 635.667677 311.397445 639.033497 L 411.397743 859.022343 C 414.970237 866.8464 426.248688 866.255905 428.964964 858.107076 L 485.35722 688.900785 L 651.581512 781.254175 L 688.635062 966.462876 L 419.339898 985.683483 C 412.785406 986.155879 408.710992 992.976094 411.368218 998.969616 L 487.305852 1169.799769 L 336.670623 1226.280598 C 329.289438 1229.055924 328.344646 1239.153385 335.135337 1243.2278 L 521.288829 1354.919895 L 384.795951 1432.924262 C 389.017989 1437.795844 393.299077 1442.608377 397.639214 1447.36186 L 544.701949 1363.334447 C 550.961194 1359.732428 551.049769 1350.727382 544.879098 1347.007265 L 361.648554 1237.086654 L 503.308262 1183.971644 C 508.416042 1182.052536 510.837071 1176.236162 508.622716 1171.276006 L 434.102269 1003.575476 L 700.681157 984.532018 C 706.349907 984.148196 710.394796 978.833743 709.272856 973.253567 L 669.266832 773.25297 C 668.735387 770.536694 667.022952 768.20424 664.601923 766.846102 L 484.589576 666.845803 C 479.422747 663.981903 472.897779 666.521031 471.03772 672.130732 L 418.660829 829.290929 L 331.090447 636.701043 L 443.373038 505.699766 L 597.69886 544.288603 C 600.917056 545.085771 604.341926 544.140979 606.674381 541.808525 L 726.692454 421.790452 C 729.556353 418.926552 730.264947 414.527366 728.463938 410.895822 L 694.097139 342.221274 L 1018.574044 284.972801 L 1139.97978 345.675669 L 800.002386 345.675669 C 791.587835 345.675669 787.365797 355.861705 793.329794 361.796178 L 907.118147 475.614055 L 792.827874 608.977311 C 787.277222 615.443229 792.444052 625.393067 800.947178 624.536849 L 1187.839385 585.829914 L 1130.797585 832.981522 C 1129.970893 836.524491 1131.269981 840.215083 1134.104356 842.488488 L 1226.457747 916.388915 L 998.142924 1182.76113 L 785.062867 1047.153994 C 779.03982 1043.315777 771.127189 1047.272093 770.566219 1054.387555 L 750.577969 1314.382426 C 750.135098 1320.228325 755.06573 1325.070382 760.882104 1324.538937 L 1151.494429 1287.308238 L 875.851446 1526.192919 L 552.289808 1577.300246 C 560.52721 1582.526125 568.853187 1587.574856 577.297263 1592.475963 L 881.461147 1544.439209 C 883.203106 1544.173486 884.856492 1543.405843 886.185105 1542.254378 L 1186.186 1282.259508 C 1193.124314 1276.23646 1188.252732 1264.83991 1179.100062 1265.725652 L 770.270971 1304.639261 L 788.222014 1071.54143 L 994.924727 1203.103677 C 998.881042 1205.61328 1004.106921 1204.845636 1007.177494 1201.273143 L 1247.184115 921.260498 C 1250.668034 917.215608 1250.07754 911.074462 1245.914551 907.738166 L 1150.549637 831.446235 L 1207.178091 585.977537 L 1400.004175 470.122453 L 1491.560397 710.896717 C 1489.729863 714.52826 1490.438457 718.927447 1493.331882 721.791347 L 1607.208808 835.697798 L 1512.729637 949.072804 C 1509.777163 952.615773 1509.806687 957.753078 1512.818211 961.266522 L 1627.138009 1094.629778 L 1496.579603 1225.158658 L 1341.161366 1205.731378 C 1337.352674 1205.258983 1333.603032 1207.148566 1331.742974 1210.514387 L 1231.742675 1390.526733 C 1229.351171 1394.837345 1230.65026 1400.240373 1234.754199 1402.986174 L 1351.052154 1480.518144 L 1361.120091 1581.433709 C 1367.143138 1577.684067 1373.077611 1573.875376 1378.982559 1570.007635 L 1369.387019 1474.170325 C 1369.121296 1471.365474 1367.586009 1468.826347 1365.253555 1467.261535 L 1252.498568 1392.091545 L 1345.147206 1225.276757 L 1498.823484 1244.497364 C 1501.716908 1244.85166 1504.610333 1243.847819 1506.677065 1241.810612 L 1646.683387 1101.80429 C 1650.167307 1098.32037 1650.37398 1092.710669 1647.185308 1088.961027 L 1532.36359 955.036802 L 1627.256108 841.159875 C 1630.38573 837.410233 1630.120008 831.889106 1626.695138 828.434712 L 1511.489598 713.258696 L 1422.561077 452.23046 L 1415.740862 438.708129 L 1201.627439 565.812139 C 1201.00742 565.69404 1200.3874 565.634991 1199.767381 565.634991 C 1199.206411 565.664515 1198.674965 565.69404 1198.14352 565.812139 L 822.500239 603.36761 L 927.165446 481.282805 C 930.383643 477.533163 930.176969 471.923462 926.663525 468.439543 L 822.795486 364.571504 L 1180.015329 364.571504 C 1189.965167 364.571504 1193.153839 351.137746 1184.237367 346.67951 L 1043.611025 276.351577 L 1205.908527 215.501086 C 1196.283461 212.223839 1186.569821 209.123741 1176.767607 206.230317 Z M 1176.767607 206.230317 " transform="matrix(0.132304,0,0,0.132304,0,0)"/>
<path style=" stroke:none;fill-rule:nonzero;fill:rgb(100%,100%,100%);fill-opacity:0.392157;" d="M 127.011719 23.167969 C 71.308594 23.167969 26.460938 68.015625 26.460938 123.71875 C 26.460938 124.371094 26.46875 125.019531 26.480469 125.664062 C 27.511719 70.863281 71.957031 27.058594 127.011719 27.058594 C 182.066406 27.058594 226.511719 70.863281 227.542969 125.664062 C 227.554688 125.019531 227.5625 124.371094 227.5625 123.71875 C 227.5625 68.015625 182.71875 23.167969 127.011719 23.167969 Z M 127.011719 23.167969 "/>
<path style=" stroke:none;fill-rule:nonzero;fill:rgb(0%,0%,0%);fill-opacity:0.235294;" d="M 127.011719 224.269531 C 71.308594 224.269531 26.460938 179.425781 26.460938 123.71875 C 26.460938 123.070312 26.46875 122.421875 26.480469 121.777344 C 27.511719 176.578125 71.957031 220.382812 127.011719 220.382812 C 182.066406 220.382812 226.511719 176.578125 227.542969 121.777344 C 227.554688 122.421875 227.5625 123.070312 227.5625 123.71875 C 227.5625 179.425781 182.71875 224.269531 127.011719 224.269531 Z M 127.011719 224.269531 "/>
<path style=" stroke:none;fill-rule:nonzero;fill:rgb(12.941177%,12.941177%,12.941177%);fill-opacity:1;" d="M 127.011719 22.417969 C 70.902344 22.417969 25.710938 67.613281 25.710938 123.71875 C 25.710938 179.828125 70.902344 225.023438 127.011719 225.023438 C 183.121094 225.023438 228.3125 179.828125 228.3125 123.71875 C 228.3125 67.613281 183.121094 22.417969 127.011719 22.417969 Z M 127.011719 23.917969 C 182.316406 23.917969 226.8125 68.417969 226.8125 123.71875 C 226.8125 179.023438 182.316406 223.519531 127.011719 223.519531 C 71.710938 223.519531 27.210938 179.023438 27.210938 123.71875 C 27.210938 68.417969 71.710938 23.917969 127.011719 23.917969 Z M 127.011719 23.917969 "/>
<path style="fill-rule:nonzero;fill:url(#linear3);stroke-width:11.338583;stroke-linecap:round;stroke-linejoin:round;stroke:rgb(12.941177%,12.941177%,12.941177%);stroke-opacity:1;stroke-miterlimit:4;" d="M 654.445412 558.90335 C 552.880302 559.050973 468.114771 654.917808 481.341855 756.12862 C 488.959238 857.457532 590.553872 934.044711 690.022725 914.085986 C 753.589493 903.811376 807.235947 857.191809 827.932791 796.72514 L 960.38078 796.72514 C 960.469354 844.879992 959.554087 893.507241 961.207472 942.577361 C 961.236997 943.433578 961.325571 944.289796 961.473195 945.175538 C 964.602818 963.067531 975.408873 977.475605 988.90168 984.768216 C 1002.424011 992.090352 1017.629253 993.153242 1031.564931 990.02362 C 1045.500608 986.893997 1058.727692 979.483287 1068.027986 967.378143 C 1076.590161 956.247316 1080.6941 940.717302 1078.184497 924.626318 L 1078.184497 796.72514 L 1194.895798 796.72514 C 1241.013444 842.87231 1287.160615 888.989956 1333.27826 935.107601 C 1287.012991 981.402395 1240.718197 1027.667665 1194.452927 1073.932934 L 779.453166 1073.932934 C 760.409708 1073.490063 743.551081 1081.904614 733.89649 1094.570728 C 724.153326 1107.325416 720.905604 1122.884955 722.204693 1137.706375 C 723.503782 1152.49827 729.379205 1167.260641 741.071002 1178.21432 C 752.349454 1188.813702 769.621427 1194.541502 787.749618 1191.736651 C 933.129444 1191.559503 1078.627368 1192.090948 1224.154817 1191.441404 C 1225.690103 1191.441404 1227.254915 1191.234731 1228.731152 1190.880434 C 1265.430405 1181.521091 1282.141409 1150.224865 1298.822887 1136.052989 C 1299.206709 1135.728217 1299.590531 1135.37392 1299.944827 1135.019623 C 1354.713222 1080.369328 1409.393043 1025.364735 1464.131913 971.098261 C 1464.98813 970.212518 1465.785298 969.267727 1466.464367 968.234361 C 1480.577194 947.330844 1477.329472 922.352913 1467.438684 906.114305 C 1457.606945 889.993797 1443.759842 878.538197 1434.046202 869.296953 L 1433.928103 869.178854 C 1433.898578 869.14933 1433.839528 869.09028 1433.780479 869.060755 C 1374.642423 810.30652 1316.124386 750.548444 1256.130112 692.000883 C 1255.244369 691.144665 1254.299578 690.377022 1253.295736 689.727478 C 1237.942871 679.659541 1221.172818 678.271878 1207.207616 678.449027 C 1193.212888 678.626175 1180.989645 679.984313 1172.014124 679.039521 C 1171.335055 678.980472 1170.685511 678.921422 1170.035966 678.921422 L 827.785167 678.921422 C 803.781553 608.268717 734.664134 557.78141 659.28747 558.962399 C 657.663609 558.932874 656.039748 558.90335 654.445412 558.90335 Z M 662.180894 676.648017 C 703.899353 676.411819 735.07748 730.294472 713.46537 766.285131 C 713.170122 766.787052 712.904399 767.259448 712.668202 767.761368 C 694.215238 805.700661 631.061817 808.712184 609.03636 772.75105 C 608.800162 772.367228 608.53444 771.983406 608.268717 771.62911 C 580.958331 733.424095 611.516438 675.260355 658.696975 676.707067 C 659.198895 676.736592 659.700816 676.736592 660.173212 676.707067 C 660.852281 676.677542 661.53135 676.677542 662.180894 676.648017 Z M 662.180894 676.648017 " transform="matrix(0.132304,0,0,0.132304,0,0)"/>
</g>
</svg>

<svg xmlns="http://www.w3.org/2000/svg" width="256pt" height="256pt" viewBox="0 0 256 256"><defs><radialGradient id="a" gradientUnits="userSpaceOnUse" cx="450.909" cy="189.579" fx="450.909" fy="189.579" r="21.167" gradientTransform="matrix(0 -.62506 -1.1251 0 356.185 508.763)"><stop offset="0" stop-opacity=".314"/><stop offset=".222" stop-opacity=".275"/><stop offset="1" stop-opacity="0"/></radialGradient><radialGradient id="b" gradientUnits="userSpaceOnUse" cx="450.909" cy="189.579" fx="450.909" fy="189.579" r="21.167" gradientTransform="matrix(0 .62506 1.1251 0 -102.16 -60.22)"><stop offset="0" stop-opacity=".314"/><stop offset=".222" stop-opacity=".275"/><stop offset="1" stop-opacity="0"/></radialGradient><radialGradient id="c" gradientUnits="userSpaceOnUse" cx="450.909" cy="189.579" fx="450.909" fy="189.579" r="21.167" gradientTransform="matrix(0 -.62506 1.1251 0 -102.16 508.763)"><stop offset="0" stop-opacity=".314"/><stop offset=".222" stop-opacity=".275"/><stop offset="1" stop-opacity="0"/></radialGradient><radialGradient id="d" gradientUnits="userSpaceOnUse" cx="450.909" cy="189.579" fx="450.909" fy="189.579" r="21.167" gradientTransform="matrix(0 .62506 -1.1251 0 356.185 -60.22)"><stop offset="0" stop-opacity=".314"/><stop offset=".222" stop-opacity=".275"/><stop offset="1" stop-opacity="0"/></radialGradient><linearGradient id="e" gradientUnits="userSpaceOnUse" x1="255.323" y1="233.5" x2="255.323" y2="254.667" gradientTransform="matrix(.10688 0 0 .50005 99.723 107.51)"><stop offset="0" stop-opacity=".275"/><stop offset="1" stop-opacity="0"/></linearGradient><linearGradient id="f" gradientUnits="userSpaceOnUse" x1="254" y1="233.5" x2="254" y2="-168.667" gradientTransform="matrix(.50005 0 0 .50005 0 107.51)"><stop offset="0" stop-color="#3f51b5"/><stop offset="1" stop-color="#1565c0"/></linearGradient><linearGradient id="g" gradientUnits="userSpaceOnUse" x1="960" y1="1535.118" x2="960" y2="175.118"><stop offset="0" stop-color="#d1e9fd" stop-opacity="0"/><stop offset="1" stop-color="#fffaea" stop-opacity=".784"/></linearGradient><linearGradient id="h" gradientUnits="userSpaceOnUse" x1="254" y1="101.208" x2="254" y2="-68.125" gradientTransform="matrix(3.77953 0 0 3.77953 0 812.598)"><stop offset="0" stop-color="#ffa726"/><stop offset="1" stop-color="#ffd54f"/></linearGradient></defs><path d="M145.535 224.27h21.168v-10.583h-21.168zm0 0" fill="url(#a)"/><path d="M108.488 224.27H87.32v10.585h21.168zm0 0" fill="url(#b)"/><path d="M108.488 224.27H87.32v-10.583h21.168zm0 0" fill="url(#c)"/><path d="M145.535 224.27h21.168v10.585h-21.168zm0 0" fill="url(#d)"/><path d="M108.488 221.625h37.047v13.23h-37.047zm0 0" fill="url(#e)"/><path d="M127.012 23.168c55.535 0 100.55 45.02 100.55 100.55 0 55.536-45.015 100.552-100.55 100.552-55.532 0-100.551-45.016-100.551-100.551 0-55.531 45.02-100.551 100.55-100.551zm0 0" fill="url(#f)"/><path d="M1176.768 206.23L1017.51 265.96l-339.15 59.847c-6.23 1.092-9.655 7.883-6.82 13.551l36.964 73.9-111.397 111.398-154.827-38.707a9.456 9.456 0 0 0-9.448 3.011L312.815 628.966a9.43 9.43 0 0 0-1.418 10.067l100 219.99c3.573 7.823 14.852 7.233 17.568-.916l56.392-169.206 166.225 92.353 37.053 185.209-269.295 19.22c-6.555.473-10.629 7.293-7.972 13.287l75.938 170.83-150.635 56.48c-7.382 2.776-8.326 12.873-1.536 16.948L521.29 1354.92l-136.493 78.004a746.523 746.523 0 0 0 12.843 14.438l147.063-84.028c6.26-3.602 6.348-12.607.177-16.327l-183.23-109.92 141.66-53.115c5.107-1.92 7.528-7.736 5.314-12.696l-74.52-167.7 266.578-19.044c5.669-.384 9.714-5.698 8.592-11.278l-40.006-200.001a9.434 9.434 0 0 0-4.665-6.407l-180.012-100c-5.167-2.864-11.692-.325-13.552 5.285L418.66 829.29 331.09 636.7 443.372 505.7l154.326 38.589c3.218.797 6.643-.148 8.975-2.48L726.692 421.79c2.864-2.863 3.573-7.263 1.772-10.894l-34.367-68.675 324.477-57.248 121.406 60.703H800.002c-8.414 0-12.636 10.186-6.672 16.12l113.788 113.818-114.29 133.363c-5.55 6.466-.384 16.416 8.12 15.56l386.891-38.707-57.041 247.152a9.442 9.442 0 0 0 3.306 9.506l92.354 73.9-228.315 266.373-213.08-135.607c-6.023-3.838-13.936.118-14.497 7.234l-19.988 259.994c-.443 5.846 4.488 10.688 10.304 10.157l390.612-37.23-275.643 238.884L552.29 1577.3a741.17 741.17 0 0 0 25.007 15.176l304.164-48.037a9.421 9.421 0 0 0 4.724-2.185l300.001-259.994c6.938-6.024 2.067-17.42-7.086-16.534l-408.829 38.913 17.951-233.098 206.703 131.563a9.476 9.476 0 0 0 12.252-1.83l240.007-280.014c3.484-4.044 2.894-10.186-1.27-13.522l-95.364-76.292 56.628-245.468 192.826-115.856 91.556 240.775a9.383 9.383 0 0 0 1.772 10.894l113.877 113.907-94.48 113.375a9.429 9.429 0 0 0 .09 12.194l114.319 133.363-130.558 130.529-155.419-19.428c-3.808-.472-7.558 1.418-9.418 4.783l-100 180.013a9.45 9.45 0 0 0 3.011 12.46l116.298 77.531 10.068 100.916a918.8 918.8 0 0 0 17.863-11.426l-9.596-95.838a9.416 9.416 0 0 0-4.133-6.908l-112.755-75.17 92.648-166.815 153.676 19.22a9.55 9.55 0 0 0 7.854-2.686l140.006-140.007c3.484-3.484 3.691-9.093.502-12.843l-114.821-133.924 94.892-113.877c3.13-3.75 2.864-9.27-.56-12.725L1511.49 713.259 1422.56 452.23l-6.82-13.522-214.114 127.104a9.92 9.92 0 0 0-1.86-.177c-.56.03-1.092.059-1.623.177L822.5 603.368l104.665-122.085c3.219-3.75 3.012-9.36-.501-12.843L822.795 364.572h357.22c9.95 0 13.139-13.434 4.222-17.892l-140.626-70.328 162.298-60.85a743.2 743.2 0 0 0-29.141-9.272zm0 0" transform="scale(.1323)" fill="url(#g)" stroke-width="75.591" stroke-linecap="round" stroke-linejoin="round" stroke="#ffca28" stroke-opacity=".09"/><path d="M127.012 23.168c-55.703 0-100.551 44.848-100.551 100.55 0 .653.008 1.302.02 1.946 1.03-54.8 45.476-98.605 100.53-98.605 55.055 0 99.5 43.804 100.532 98.605.012-.644.02-1.293.02-1.945 0-55.703-44.844-100.551-100.551-100.551zm0 0" fill="#fff" fill-opacity=".392"/><path d="M127.012 224.27c-55.703 0-100.551-44.844-100.551-100.551 0-.649.008-1.297.02-1.942 1.03 54.801 45.476 98.606 100.53 98.606 55.055 0 99.5-43.805 100.532-98.606.012.645.02 1.293.02 1.942 0 55.707-44.844 100.55-100.551 100.55zm0 0" fill-opacity=".235"/><path d="M127.012 22.418c-56.11 0-101.301 45.195-101.301 101.3 0 56.11 45.191 101.305 101.3 101.305 56.11 0 101.302-45.195 101.302-101.304 0-56.106-45.192-101.301-101.301-101.301zm0 1.5c55.304 0 99.8 44.5 99.8 99.8 0 55.305-44.496 99.802-99.8 99.802-55.301 0-99.801-44.497-99.801-99.801 0-55.301 44.5-99.801 99.8-99.801zm0 0" fill="#212121"/><path d="M654.445 558.903c-101.565.148-186.33 96.015-173.103 197.226 7.617 101.329 109.212 177.916 208.68 157.957 63.567-10.275 117.214-56.894 137.91-117.36h132.449c.088 48.154-.827 96.781.826 145.851.03.857.119 1.713.266 2.599 3.13 17.892 13.936 32.3 27.429 39.592 13.522 7.322 28.727 8.385 42.663 5.256 13.936-3.13 27.163-10.54 36.463-22.646 8.562-11.13 12.666-26.66 10.156-42.752v-127.9h116.712c46.117 46.146 92.265 92.264 138.382 138.382-46.265 46.294-92.56 92.56-138.825 138.825h-415c-19.043-.443-35.902 7.972-45.557 20.638-9.743 12.754-12.99 28.314-11.691 43.135 1.299 14.792 7.174 29.555 18.866 40.508 11.278 10.6 28.55 16.328 46.679 13.523 145.38-.177 290.877.354 436.405-.296 1.535 0 3.1-.206 4.576-.56 36.7-9.36 53.41-40.656 70.092-54.828.384-.325.768-.68 1.122-1.033 54.768-54.65 109.448-109.655 164.187-163.922.856-.885 1.653-1.83 2.332-2.864 14.113-20.903 10.865-45.881.975-62.12-9.832-16.12-23.68-27.576-33.393-36.817l-.118-.118c-.03-.03-.088-.089-.148-.118-59.138-58.754-117.656-118.513-177.65-177.06a18.76 18.76 0 0 0-2.834-2.274c-15.353-10.067-32.123-11.455-46.088-11.278-13.995.177-26.218 1.535-35.194.59-.679-.059-1.328-.118-1.978-.118h-342.25c-24.004-70.652-93.122-121.14-168.499-119.959-1.623-.03-3.247-.059-4.842-.059zm7.736 117.745c41.718-.236 72.896 53.646 51.284 89.637-.295.502-.56.974-.797 1.476-18.453 37.94-81.606 40.951-103.632 4.99a15.017 15.017 0 0 0-.767-1.122c-27.31-38.205 3.247-96.369 50.428-94.922.502.03 1.004.03 1.476 0 .68-.03 1.358-.03 2.008-.059zm0 0" transform="scale(.1323)" fill="url(#h)" stroke-width="11.339" stroke-linecap="round" stroke-linejoin="round" stroke="#212121"/></svg>
